src/assets/images/back_to_users.svg

<svg width="30" height="30" viewBox="0 0 30 30" fill="none" xmlns="http://www.w3.org/2000/svg">
<path d="M1.94997 15.3564C1.9945 15.4712 2.0613 15.5767 2.14684 15.6658L5.89684 19.4157C6.07263 19.5927 6.31285 19.6935 6.56248 19.6935C6.81211 19.6935 7.05232 19.5927 7.22812 19.4157C7.40508 19.24 7.50586 18.9997 7.50586 18.7501C7.50586 18.5005 7.40508 18.2603 7.22812 18.0845L5.07187 15.9376H27.6562C28.1742 15.9376 28.5937 15.5181 28.5937 15.0001C28.5937 14.4821 28.1742 14.0626 27.6562 14.0626H5.07187L7.22812 11.9158C7.5961 11.5478 7.5961 10.9525 7.22812 10.5845C6.86014 10.2165 6.26485 10.2165 5.89687 10.5845L2.14687 14.3345C2.06133 14.4236 1.99453 14.529 1.95 14.6439C1.90195 14.7564 1.87617 14.8771 1.875 15.0001C1.87617 15.1232 1.90195 15.2439 1.95 15.3564L1.94997 15.3564Z" fill="#545F7D"/>
</svg>

<svg xmlns="http://www.w3.org/2000/svg" width="30" height="30" fill="none"><path fill="#545F7D" d="M1.95 15.356a.93.93 0 0 0 .197.31l3.75 3.75a.94.94 0 1 0 1.331-1.332l-2.156-2.146h22.584a.937.937 0 1 0 0-1.875H5.072l2.156-2.147a.94.94 0 1 0-1.331-1.332l-3.75 3.75a.934.934 0 0 0-.197.31.928.928 0 0 0-.075.356.929.929 0 0 0 .075.356Z"/></svg>
